public/icons/back.svg

<svg viewBox="0 0 8 14" fill="" xmlns="http://www.w3.org/2000/svg">
<path d="M0.499997 7.80005L6.2 13.4C6.6 13.8 7.2 13.8 7.6 13.4C8 13 8 12.4 7.6 12L2.7 7.00005L7.6 2.00005C8 1.60005 8 1.00005 7.6 0.600049C7.4 0.400049 7.2 0.300049 6.9 0.300049C6.6 0.300049 6.4 0.400049 6.2 0.600049L0.499997 6.20005C0.099997 6.70005 0.099997 7.30005 0.499997 7.80005C0.499997 7.70005 0.499997 7.70005 0.499997 7.80005Z"/>
</svg>

<svg xmlns="http://www.w3.org/2000/svg" viewBox="0 0 8 14"><path d="m.5 7.8 5.7 5.6c.4.4 1 .4 1.4 0 .4-.4.4-1 0-1.4L2.7 7l4.9-5c.4-.4.4-1 0-1.4-.2-.2-.4-.3-.7-.3-.3 0-.5.1-.7.3L.5 6.2c-.4.5-.4 1.1 0 1.6 0-.1 0-.1 0 0Z"/></svg>
